symbols/web/visibility/materialsymbolsrounded/visibility_wght700grad200_20px.svg

<svg xmlns="http://www.w3.org/2000/svg" height="20" width="20"><path d="M10 13.542q1.667 0 2.823-1.167t1.156-2.813q0-1.666-1.167-2.822Q11.646 5.583 10 5.583q-1.667 0-2.823 1.167T6.021 9.562q0 1.667 1.167 2.823Q8.354 13.542 10 13.542Zm0-2.146q-.771 0-1.302-.531-.531-.532-.531-1.303 0-.77.531-1.302.531-.531 1.302-.531t1.302.531q.531.532.531 1.302 0 .771-.531 1.303-.531.531-1.302.531Zm0 5.333q-3.125 0-5.698-1.667-2.573-1.666-3.927-4.416-.104-.208-.167-.5-.062-.292-.062-.584 0-.291.062-.583.063-.291.167-.5 1.354-2.75 3.937-4.396Q6.896 2.438 10 2.438q3.104 0 5.688 1.645 2.583 1.646 3.937 4.396.104.209.167.5.062.292.062.583 0 .292-.062.584-.063.292-.167.5-1.354 2.75-3.927 4.416-2.573 1.667-5.698 1.667Zm0-7.167Zm0 4.563q2.333 0 4.281-1.24 1.948-1.239 2.969-3.323-1.021-2.083-2.969-3.302Q12.333 5.042 10 5.042q-2.333 0-4.292 1.218Q3.75 7.479 2.729 9.562q1.021 2.084 2.979 3.323 1.959 1.24 4.292 1.24Z"/></svg>

<svg xmlns="http://www.w3.org/2000/svg" height="20" width="20"><path d="M10 13.542Q11.667 13.542 12.823 12.375Q13.979 11.208 13.979 9.562Q13.979 7.896 12.812 6.74Q11.646 5.583 10 5.583Q8.333 5.583 7.177 6.75Q6.021 7.917 6.021 9.562Q6.021 11.229 7.188 12.385Q8.354 13.542 10 13.542ZM10 11.396Q9.229 11.396 8.698 10.865Q8.167 10.333 8.167 9.562Q8.167 8.792 8.698 8.26Q9.229 7.729 10 7.729Q10.771 7.729 11.302 8.26Q11.833 8.792 11.833 9.562Q11.833 10.333 11.302 10.865Q10.771 11.396 10 11.396ZM10 16.729Q6.875 16.729 4.302 15.062Q1.729 13.396 0.375 10.646Q0.271 10.438 0.208 10.146Q0.146 9.854 0.146 9.562Q0.146 9.271 0.208 8.979Q0.271 8.688 0.375 8.479Q1.729 5.729 4.312 4.083Q6.896 2.438 10 2.438Q13.104 2.438 15.688 4.083Q18.271 5.729 19.625 8.479Q19.729 8.688 19.792 8.979Q19.854 9.271 19.854 9.562Q19.854 9.854 19.792 10.146Q19.729 10.438 19.625 10.646Q18.271 13.396 15.698 15.062Q13.125 16.729 10 16.729ZM10 9.562Q10 9.562 10 9.562Q10 9.562 10 9.562Q10 9.562 10 9.562Q10 9.562 10 9.562Q10 9.562 10 9.562Q10 9.562 10 9.562Q10 9.562 10 9.562Q10 9.562 10 9.562ZM10 14.125Q12.333 14.125 14.281 12.885Q16.229 11.646 17.25 9.562Q16.229 7.479 14.281 6.26Q12.333 5.042 10 5.042Q7.667 5.042 5.708 6.26Q3.75 7.479 2.729 9.562Q3.75 11.646 5.708 12.885Q7.667 14.125 10 14.125Z"/></svg>
